sync-circle.svg

<svg fill="currentColor" viewBox="0 0 24 24"><path d="M2 12A10 10 0 1 0 12 2 10 10 0 0 0 2 12m13.6 1.72A4 4 0 0 0 16 12a4 4 0 0 0-4-4v2L8.88 7 12 4v2a6 6 0 0 1 6 6 5.9 5.9 0 0 1-.93 3.19M6 12a5.9 5.9 0 0 1 .93-3.19l1.47 1.47A4 4 0 0 0 8 12a4 4 0 0 0 4 4v-2l3 3-3 3v-2a6 6 0 0 1-6-6"/></svg>

<svg  viewBox="0 0 24 24" fill="currentColor"><path  d="M2 12A10 10 0 1 0 12 2A10 10 0 0 0 2 12M15.6 13.72A4 4 0 0 0 16 12A4 4 0 0 0 12 8V10L8.88 7L12 4V6A6 6 0 0 1 18 12A5.9 5.9 0 0 1 17.07 15.19M6 12A5.9 5.9 0 0 1 6.93 8.81L8.4 10.28A4 4 0 0 0 8 12A4 4 0 0 0 12 16V14L15 17L12 20V18A6 6 0 0 1 6 12Z"/></svg>
